32x32/apps/anbox-com-android-vending.svg

<svg height="32" width="32" xmlns="http://www.w3.org/2000/svg"><path d="m6.047 3a2 1.982 0 0 0 -1.309.45l-.002-.002a2 1.982 0 0 0 -.045.04 2 1.982 0 0 0 -.015.012 2 1.982 0 0 0 -.676 1.483v24.037a2 1.982 0 0 0 .723 1.518l-.002.002a2 1.982 0 0 0 .021.015 2 1.982 0 0 0 .106.082l.002-.002a2 1.982 0 0 0 2.148.102l10.502-6.01 5.514-3.157 4.987-2.853a2 1.982 0 0 0 .595-.522 2 1.982 0 0 0 .207-.338 2 1.982 0 0 0 .133-1.353 2 1.982 0 0 0 -.06-.19 2 1.982 0 0 0 -.287-.517 2 1.982 0 0 0 -.002-.002 2 1.982 0 0 0 -.13-.15 2 1.982 0 0 0 -.298-.26 2 1.982 0 0 0 -.002 0 2 1.982 0 0 0 -.156-.1l-5.002-2.863-5.499-3.146-10.502-6.01a2 1.982 0 0 0 -.951-.266z" opacity=".2"/><path d="m4.736 2.446a2 1.982 0 0 0 -.736 1.536v24.038a2 1.982 0 0 0 .848 1.616l13.656-13.536v-.223z" fill="#4ac0ed"/><path d="m22.927 11.381-4.535 4.496v.334l4.48 4.44 5.128-2.933a2 1.982 0 0 0 0-3.432z" fill="#ffd530"/><path d="m18.392 15.988-13.672 13.552a2 1.982 0 0 0 2.28.196l10.5-6.01 5.515-3.156z" fill="#e54257"/><path d="m6.047 2a2 1.982 0 0 0 -1.372.5l13.717 13.488 4.606-4.566-5.498-3.147-10.5-6.01a2 1.982 0 0 0 -.953-.265z" fill="#4c9946"/><path d="m22.998 11.422-4.605 4.566.503.5 4.102-4.066 5.002 2.863a2 1.982 0 0 1 .932 1.215 2 1.982 0 0 0 -.932-2.215z" fill="#f4f4f7" opacity=".2"/><path d="m18.393 15.988-13.673 13.552a2 1.982 0 0 0 .648.357l13.024-12.908 3.982 3.948.639-.366-4.621-4.582z" opacity=".1"/><g fill="#f4f4f7"><path d="m4.736 2.447a2 1.982 0 0 0 -.045.041 2 1.982 0 0 1 .047-.039zm-.06.053a2 1.982 0 0 0 -.676 1.482v1a2 1.982 0 0 1 .676-1.482l13.21 12.99.507-.502zm13.717 13.488.11.112v-.223zm-13.657-12.54.002.001a2 1.982 0 0 0 -.047.04 2 1.982 0 0 1 .045-.042z" opacity=".2"/><path d="m6.047 2a2 1.982 0 0 0 -1.371.5l.635.625a2 1.982 0 0 1 .736-.125 2 1.982 0 0 1 .951.266l10.502 6.01 4.86 2.78.638-.634-5.498-3.147-10.502-6.01a2 1.982 0 0 0 -.951-.265z" opacity=".2"/></g></svg>

<svg height="32" width="32" xmlns="http://www.w3.org/2000/svg">
    <path d="M6.047 3a2 1.982 0 0 0-1.309.45l-.002-.002a2 1.982 0 0 0-.045.04 2 1.982 0 0 0-.015.012A2 1.982 0 0 0 4 4.983V29.02a2 1.982 0 0 0 .723 1.518l-.002.002a2 1.982 0 0 0 .021.015 2 1.982 0 0 0 .106.082l.002-.002a2 1.982 0 0 0 2.148.102l10.502-6.01 5.514-3.157 4.987-2.853a2 1.982 0 0 0 .595-.522 2 1.982 0 0 0 .207-.338 2 1.982 0 0 0 .133-1.353 2 1.982 0 0 0-.06-.19 2 1.982 0 0 0-.287-.517 2 1.982 0 0 0-.002-.002 2 1.982 0 0 0-.13-.15 2 1.982 0 0 0-.298-.26 2 1.982 0 0 0-.002 0 2 1.982 0 0 0-.156-.1l-5.002-2.863L17.5 9.276 6.998 3.266A2 1.982 0 0 0 6.047 3z" opacity=".2"/>
    <path d="M4.736 2.446A2 1.982 0 0 0 4 3.982V28.02a2 1.982 0 0 0 .848 1.616L18.504 16.1v-.223z" fill="#4ac0ed"/>
    <path d="m22.927 11.381-4.535 4.496v.334l4.48 4.44L28 17.718a2 1.982 0 0 0 0-3.432z" fill="#ffd530"/>
    <path d="M18.392 15.988 4.72 29.54a2 1.982 0 0 0 2.28.196l10.5-6.01 5.515-3.156z" fill="#e54257"/>
    <path d="M6.047 2a2 1.982 0 0 0-1.372.5l13.717 13.488 4.606-4.566L17.5 8.275 7 2.265A2 1.982 0 0 0 6.047 2z" fill="#4c9946"/>
    <path d="m22.998 11.422-4.605 4.566.503.5 4.102-4.066L28 15.285a2 1.982 0 0 1 .932 1.215A2 1.982 0 0 0 28 14.285z" fill="#f4f4f7" opacity=".2"/>
    <path d="M18.393 15.988 4.72 29.54a2 1.982 0 0 0 .648.357l13.024-12.908 3.982 3.948.639-.366-4.621-4.582z" opacity=".1"/>
    <g fill="#f4f4f7">
        <path d="M4.736 2.447a2 1.982 0 0 0-.045.041 2 1.982 0 0 1 .047-.039zm-.06.053A2 1.982 0 0 0 4 3.982v1A2 1.982 0 0 1 4.676 3.5l13.21 12.99.507-.502zm13.717 13.488.11.112v-.223zM4.736 3.448l.002.001a2 1.982 0 0 0-.047.04 2 1.982 0 0 1 .045-.042z" opacity=".2"/>
        <path d="M6.047 2a2 1.982 0 0 0-1.371.5l.635.625A2 1.982 0 0 1 6.047 3a2 1.982 0 0 1 .951.266L17.5 9.276l4.86 2.78.638-.634L17.5 8.275 6.998 2.265A2 1.982 0 0 0 6.047 2z" opacity=".2"/>
    </g>
</svg>
